X: 287
M:3/2
L:1/8
K:G
g4 d3cB4 | edcB AGFED4 | dcBA GFEDC4 | AGFE DCB,A,G,4 |
b4a3gf4 | g2ba gfed^c4 | dBAG Fd^cB AGFE | F2d2E2^c2d4 |

